lib/build/svg/brand/google-docs.svg

<svg width="24" height="24" viewBox="0 0 24 24" fill="none" xmlns="http://www.w3.org/2000/svg">
<path d="M10.0003 16.9996H5V20.6364C5 20.998 5.14367 21.3449 5.39939 21.6006C5.65512 21.8563 6.00195 22 6.36361 22H10.0003V16.9996Z" fill="#00832D"/>
<path d="M10.0003 2H6.36361C6.00195 2 5.65512 2.14367 5.39939 2.39939C5.14367 2.65512 5 3.00195 5 3.36361V16.9997H10.0003V7.00034H14.5452V2H10.0003Z" fill="#FFBA00"/>
<path d="M19.5456 16.9996H14.5452V22H18.182C18.5436 22 18.8905 21.8563 19.1462 21.6006C19.4019 21.3449 19.5456 20.998 19.5456 20.6364V16.9996Z" fill="#0066DA"/>
<path d="M14.5452 16.9996H10.0003V22H14.5452V16.9996Z" fill="#00AC47"/>
<path d="M14.5452 7.00037V16.9997H19.5456V7.00037H14.5452Z" fill="#2684FC"/>
<path d="M14.5452 2V7.00034H19.5456L14.5452 2Z" fill="#EA4335"/>
</svg>

<svg width="24" height="24" viewBox="0 0 24 24" fill="none" xmlns="http://www.w3.org/2000/svg">
  <path d="M10 17H5v3.636A1.364 1.364 0 006.364 22H10v-5z" fill="#00832D"/>
  <path d="M10 2H6.364A1.364 1.364 0 005 3.364V17h5V7h4.545V2H10z" fill="#FFBA00"/>
  <path d="M19.546 17h-5v5h3.636a1.364 1.364 0 001.364-1.364V17z" fill="#0066DA"/>
  <path d="M14.545 17H10v5h4.545v-5z" fill="#00AC47"/>
  <path d="M14.545 7v10h5V7h-5z" fill="#2684FC"/>
  <path d="M14.545 2v5h5l-5-5z" fill="#EA4335"/>
</svg>
